Newaita-dark/.places-ubuntu/22/folder-books.svg

<svg xmlns="http://www.w3.org/2000/svg" xmlns:xlink="http://www.w3.org/1999/xlink" width="22px" height="22px" viewBox="0 0 22 22" version="1.1">
<defs>
<linearGradient id="linear0" gradientUnits="userSpaceOnUse" x1="254" y1="233.5" x2="254" y2="254.667007" gradientTransform="matrix(0.0429722,0,0,0.0429722,0,9.239313)">
<stop offset="0" style="stop-color:rgb(0%,0%,0%);stop-opacity:0.275;"/>
<stop offset="1" style="stop-color:rgb(0%,0%,0%);stop-opacity:0;"/>
</linearGradient>
<radialGradient id="radial0" gradientUnits="userSpaceOnUse" cx="450.908997" cy="189.578995" fx="450.908997" fy="189.578995" r="21.167" gradientTransform="matrix(0,-0.0537144,-0.09669,0,37.204064,43.721563)">
<stop offset="0" style="stop-color:rgb(0%,0%,0%);stop-opacity:0.314;"/>
<stop offset="0.222" style="stop-color:rgb(0%,0%,0%);stop-opacity:0.275;"/>
<stop offset="1" style="stop-color:rgb(0%,0%,0%);stop-opacity:0;"/>
</radialGradient>
<radialGradient id="radial1" gradientUnits="userSpaceOnUse" cx="450.908997" cy="189.578995" fx="450.908997" fy="189.578995" r="21.167" gradientTransform="matrix(0,0.0537144,0.09669,0,-15.373875,-5.175156)">
<stop offset="0" style="stop-color:rgb(0%,0%,0%);stop-opacity:0.314;"/>
<stop offset="0.222" style="stop-color:rgb(0%,0%,0%);stop-opacity:0.275;"/>
<stop offset="1" style="stop-color:rgb(0%,0%,0%);stop-opacity:0;"/>
</radialGradient>
<radialGradient id="radial2" gradientUnits="userSpaceOnUse" cx="450.908997" cy="189.578995" fx="450.908997" fy="189.578995" r="21.167" gradientTransform="matrix(0,-0.0537144,0.09669,0,-15.373875,43.721563)">
<stop offset="0" style="stop-color:rgb(0%,0%,0%);stop-opacity:0.314;"/>
<stop offset="0.222" style="stop-color:rgb(0%,0%,0%);stop-opacity:0.275;"/>
<stop offset="1" style="stop-color:rgb(0%,0%,0%);stop-opacity:0;"/>
</radialGradient>
<radialGradient id="radial3" gradientUnits="userSpaceOnUse" cx="450.908997" cy="189.578995" fx="450.908997" fy="189.578995" r="21.167" gradientTransform="matrix(0,0.0537144,-0.09669,0,37.204064,-5.175156)">
<stop offset="0" style="stop-color:rgb(0%,0%,0%);stop-opacity:0.314;"/>
<stop offset="0.222" style="stop-color:rgb(0%,0%,0%);stop-opacity:0.275;"/>
<stop offset="1" style="stop-color:rgb(0%,0%,0%);stop-opacity:0;"/>
</radialGradient>
<linearGradient id="linear1" gradientUnits="userSpaceOnUse" x1="254" y1="-147.5" x2="254" y2="-31.083" gradientTransform="matrix(0.0429722,0,0,0.0429722,0,9.239313)">
<stop offset="0" style="stop-color:rgb(64.313728%,64.313728%,64.313728%);stop-opacity:0;"/>
<stop offset="1" style="stop-color:rgb(100%,100%,100%);stop-opacity:0.196;"/>
</linearGradient>
<linearGradient id="linear2" gradientUnits="userSpaceOnUse" x1="254" y1="233.5" x2="254" y2="-105.167" gradientTransform="matrix(0.0429722,0,0,0.0429722,0,9.239313)">
<stop offset="0" style="stop-color:rgb(34.509805%,34.509805%,34.509805%);stop-opacity:0;"/>
<stop offset="1" style="stop-color:rgb(98.039216%,98.039216%,98.039216%);stop-opacity:0.196;"/>
</linearGradient>
<linearGradient id="linear3" gradientUnits="userSpaceOnUse" x1="254" y1="-147.5" x2="254" y2="233.5" gradientTransform="matrix(0.0429722,0,0,0.0429722,0,9.239313)">
<stop offset="0" style="stop-color:rgb(64.313728%,64.313728%,64.313728%);stop-opacity:0;"/>
<stop offset="1" style="stop-color:rgb(100%,100%,100%);stop-opacity:0.196;"/>
</linearGradient>
</defs>
<g id="surface1">
<path style=" stroke:none;fill-rule:nonzero;fill:url(#linear0);" d="M 2.730469 19.273438 L 19.101562 19.273438 L 19.101562 20.183594 L 2.726562 20.183594 Z M 2.730469 19.273438 "/>
<path style=" stroke:none;fill-rule:nonzero;fill:url(#radial0);" d="M 19.101562 19.273438 L 20.921875 19.273438 L 20.921875 18.363281 L 19.101562 18.363281 Z M 19.101562 19.273438 "/>
<path style=" stroke:none;fill-rule:nonzero;fill:url(#radial1);" d="M 2.730469 19.273438 L 0.910156 19.273438 L 0.910156 20.183594 L 2.726562 20.183594 Z M 2.730469 19.273438 "/>
<path style=" stroke:none;fill-rule:nonzero;fill:url(#radial2);" d="M 2.730469 19.273438 L 0.910156 19.273438 L 0.910156 18.363281 L 2.726562 18.363281 Z M 2.730469 19.273438 "/>
<path style=" stroke:none;fill-rule:nonzero;fill:url(#radial3);" d="M 19.101562 19.273438 L 20.921875 19.273438 L 20.921875 20.183594 L 19.101562 20.183594 Z M 19.101562 19.273438 "/>
<path style=" stroke:none;fill-rule:nonzero;fill:rgb(43.137255%,23.921569%,38.431373%);fill-opacity:1;" d="M 5.003906 2.902344 L 19.78125 2.902344 C 20.023438 2.898438 20.257812 2.996094 20.425781 3.167969 C 20.597656 3.335938 20.691406 3.570312 20.691406 3.8125 L 20.691406 7.222656 C 20.691406 7.722656 20.285156 8.132812 19.78125 8.128906 L 5.003906 8.128906 C 4.5 8.128906 4.09375 7.722656 4.09375 7.222656 L 4.09375 3.8125 C 4.09375 3.308594 4.5 2.898438 5.003906 2.898438 Z M 5.003906 2.902344 "/>
<path style=" stroke:none;fill-rule:nonzero;fill:url(#linear1);" d="M 5.003906 2.902344 L 19.78125 2.902344 C 20.023438 2.898438 20.257812 2.996094 20.425781 3.167969 C 20.597656 3.335938 20.691406 3.570312 20.691406 3.8125 L 20.691406 7.222656 C 20.691406 7.722656 20.285156 8.132812 19.78125 8.128906 L 5.003906 8.128906 C 4.5 8.128906 4.09375 7.722656 4.09375 7.222656 L 4.09375 3.8125 C 4.09375 3.308594 4.5 2.898438 5.003906 2.898438 Z M 5.003906 2.902344 "/>
<path style=" stroke:none;fill-rule:nonzero;fill:rgb(90.196079%,90.196079%,90.196079%);fill-opacity:0.588;" d="M 5.003906 2.902344 C 4.761719 2.898438 4.53125 2.996094 4.359375 3.167969 C 4.1875 3.335938 4.09375 3.570312 4.09375 3.8125 L 4.09375 3.921875 C 4.09375 3.683594 4.1875 3.449219 4.359375 3.28125 C 4.53125 3.109375 4.761719 3.015625 5.003906 3.015625 L 19.78125 3.015625 C 20.023438 3.015625 20.257812 3.109375 20.425781 3.28125 C 20.597656 3.449219 20.695312 3.683594 20.691406 3.921875 L 20.691406 3.8125 C 20.695312 3.570312 20.597656 3.335938 20.425781 3.167969 C 20.257812 2.996094 20.023438 2.898438 19.78125 2.898438 Z M 5.003906 2.902344 "/>
<path style=" stroke:none;fill-rule:nonzero;fill:rgb(12.941177%,12.941177%,12.941177%);fill-opacity:1;" d="M 5.003906 2.835938 C 4.464844 2.835938 4.027344 3.273438 4.027344 3.8125 L 4.027344 7.222656 C 4.027344 7.480469 4.132812 7.726562 4.3125 7.910156 C 4.496094 8.09375 4.746094 8.195312 5.003906 8.195312 L 19.78125 8.195312 C 20.042969 8.195312 20.289062 8.09375 20.472656 7.910156 C 20.65625 7.726562 20.757812 7.480469 20.757812 7.222656 L 20.757812 3.8125 C 20.757812 3.273438 20.320312 2.835938 19.78125 2.835938 Z M 5.003906 2.964844 L 19.78125 2.964844 C 20.007812 2.964844 20.222656 3.050781 20.382812 3.210938 C 20.539062 3.371094 20.628906 3.585938 20.628906 3.808594 L 20.628906 7.222656 C 20.628906 7.445312 20.539062 7.660156 20.382812 7.820312 C 20.222656 7.976562 20.007812 8.066406 19.78125 8.066406 L 5.003906 8.066406 C 4.777344 8.066406 4.5625 7.976562 4.40625 7.820312 C 4.246094 7.660156 4.15625 7.445312 4.15625 7.222656 L 4.15625 3.8125 C 4.15625 3.585938 4.246094 3.371094 4.402344 3.210938 C 4.5625 3.054688 4.777344 2.964844 5.003906 2.964844 Z M 5.003906 2.964844 "/>
<path style=" stroke:none;fill-rule:nonzero;fill:rgb(89.411765%,42.745098%,26.274511%);fill-opacity:1;" d="M 1.820312 4.71875 C 1.578125 4.71875 1.347656 4.816406 1.175781 4.984375 C 1.003906 5.15625 0.910156 5.386719 0.910156 5.628906 L 0.910156 18.363281 C 0.910156 18.605469 1.003906 18.835938 1.175781 19.007812 C 1.347656 19.175781 1.578125 19.273438 1.820312 19.273438 L 20.011719 19.273438 C 20.253906 19.273438 20.484375 19.175781 20.65625 19.007812 C 20.824219 18.835938 20.921875 18.605469 20.921875 18.363281 L 20.921875 6.992188 L 8.640625 6.992188 C 8.398438 6.992188 8.167969 6.898438 7.996094 6.726562 C 7.828125 6.558594 7.730469 6.324219 7.730469 6.085938 L 7.730469 4.71875 Z M 1.820312 4.71875 "/>
<path style=" stroke:none;fill-rule:nonzero;fill:url(#linear2);" d="M 1.820312 4.71875 C 1.578125 4.71875 1.347656 4.816406 1.175781 4.984375 C 1.003906 5.15625 0.910156 5.386719 0.910156 5.628906 L 0.910156 18.363281 C 0.910156 18.605469 1.003906 18.835938 1.175781 19.007812 C 1.347656 19.175781 1.578125 19.273438 1.820312 19.273438 L 20.011719 19.273438 C 20.253906 19.273438 20.484375 19.175781 20.65625 19.007812 C 20.824219 18.835938 20.921875 18.605469 20.921875 18.363281 L 20.921875 6.992188 L 8.640625 6.992188 C 8.398438 6.992188 8.167969 6.898438 7.996094 6.726562 C 7.828125 6.558594 7.730469 6.324219 7.730469 6.085938 L 7.730469 4.71875 Z M 1.820312 4.71875 "/>
<path style=" stroke:none;fill-rule:nonzero;fill:rgb(0%,0%,0%);fill-opacity:0.196;" d="M 1.820312 19.273438 C 1.578125 19.273438 1.347656 19.175781 1.175781 19.007812 C 1.003906 18.835938 0.910156 18.605469 0.910156 18.363281 L 0.910156 18.25 C 0.910156 18.492188 1.003906 18.722656 1.175781 18.894531 C 1.347656 19.066406 1.578125 19.160156 1.820312 19.160156 L 20.011719 19.160156 C 20.253906 19.160156 20.484375 19.066406 20.65625 18.894531 C 20.824219 18.722656 20.921875 18.492188 20.921875 18.25 L 20.921875 18.363281 C 20.921875 18.605469 20.824219 18.835938 20.65625 19.007812 C 20.484375 19.175781 20.253906 19.273438 20.011719 19.273438 Z M 1.820312 19.273438 "/>
<path style=" stroke:none;fill-rule:nonzero;fill:rgb(90.196079%,90.196079%,90.196079%);fill-opacity:0.937;" d="M 1.820312 4.71875 C 1.578125 4.71875 1.347656 4.816406 1.175781 4.984375 C 1.003906 5.15625 0.910156 5.386719 0.910156 5.628906 L 0.910156 5.742188 C 0.910156 5.5 1.003906 5.269531 1.175781 5.097656 C 1.347656 4.929688 1.578125 4.832031 1.820312 4.832031 L 7.730469 4.832031 L 7.730469 4.71875 Z M 8.585938 7.050781 C 8.34375 7.050781 8.109375 6.957031 7.941406 6.785156 C 7.769531 6.613281 7.675781 6.382812 7.675781 6.140625 L 7.675781 6.027344 C 7.675781 6.269531 7.769531 6.5 7.941406 6.671875 C 8.113281 6.84375 8.34375 6.9375 8.585938 6.9375 L 20.921875 6.9375 L 20.921875 7.050781 Z M 8.585938 7.050781 "/>
<path style=" stroke:none;fill-rule:nonzero;fill:rgb(12.941177%,12.941177%,12.941177%);fill-opacity:1;" d="M 1.820312 4.65625 C 1.5625 4.65625 1.3125 4.757812 1.128906 4.941406 C 0.949219 5.121094 0.84375 5.371094 0.84375 5.628906 L 0.84375 18.363281 C 0.84375 18.621094 0.949219 18.871094 1.128906 19.050781 C 1.3125 19.234375 1.5625 19.335938 1.820312 19.335938 L 20.011719 19.335938 C 20.269531 19.335938 20.515625 19.234375 20.699219 19.050781 C 20.882812 18.871094 20.984375 18.621094 20.984375 18.363281 L 20.984375 6.863281 L 8.640625 6.863281 C 8.417969 6.867188 8.203125 6.777344 8.042969 6.617188 C 7.882812 6.460938 7.796875 6.242188 7.796875 6.019531 L 7.796875 4.65625 Z M 1.820312 4.785156 L 7.667969 4.785156 L 7.667969 6.019531 C 7.667969 6.277344 7.769531 6.527344 7.953125 6.707031 C 8.136719 6.890625 8.382812 6.992188 8.640625 6.992188 L 20.855469 6.992188 L 20.855469 18.363281 C 20.855469 18.589844 20.769531 18.804688 20.609375 18.960938 C 20.449219 19.121094 20.234375 19.210938 20.011719 19.207031 L 1.820312 19.207031 C 1.59375 19.210938 1.378906 19.121094 1.21875 18.960938 C 1.0625 18.804688 0.972656 18.589844 0.972656 18.363281 L 0.972656 5.628906 C 0.972656 5.40625 1.0625 5.1875 1.21875 5.03125 C 1.378906 4.871094 1.59375 4.785156 1.820312 4.785156 Z M 1.820312 4.785156 "/>
<path style=" stroke:none;fill-rule:nonzero;fill:rgb(43.137255%,23.921569%,38.431373%);fill-opacity:1;" d="M 8.117188 8.8125 C 7.90625 8.808594 7.730469 9.050781 7.730469 9.277344 L 7.730469 14.960938 C 7.730469 15.214844 7.933594 15.414062 8.1875 15.417969 L 10.6875 15.871094 C 10.6875 15.871094 10.789062 16.097656 10.914062 16.097656 C 11.042969 16.097656 11.140625 15.871094 11.140625 15.871094 L 13.644531 15.417969 C 13.890625 15.371094 14.097656 15.214844 14.097656 14.960938 L 14.097656 9.277344 C 14.097656 9.023438 13.886719 8.757812 13.644531 8.820312 L 11.140625 9.496094 C 11.144531 9.554688 11.117188 9.613281 11.078125 9.65625 C 11.035156 9.699219 10.976562 9.722656 10.914062 9.722656 C 10.789062 9.722656 10.6875 9.621094 10.6875 9.496094 Z M 8.117188 8.8125 "/>
<path style=" stroke:none;fill-rule:nonzero;fill:url(#linear3);" d="M 8.117188 8.8125 C 7.90625 8.808594 7.730469 9.050781 7.730469 9.277344 L 7.730469 14.960938 C 7.730469 15.214844 7.933594 15.414062 8.1875 15.417969 L 10.6875 15.871094 C 10.6875 15.871094 10.789062 16.097656 10.914062 16.097656 C 11.042969 16.097656 11.140625 15.871094 11.140625 15.871094 L 13.644531 15.417969 C 13.890625 15.371094 14.097656 15.214844 14.097656 14.960938 L 14.097656 9.277344 C 14.097656 9.023438 13.886719 8.757812 13.644531 8.820312 L 11.140625 9.496094 C 11.144531 9.554688 11.117188 9.613281 11.078125 9.65625 C 11.035156 9.699219 10.976562 9.722656 10.914062 9.722656 C 10.789062 9.722656 10.6875 9.621094 10.6875 9.496094 Z M 8.117188 8.8125 "/>
<path style=" stroke:none;fill-rule:nonzero;fill:rgb(12.941177%,12.941177%,12.941177%);fill-opacity:1;" d="M 8.121094 8.75 C 7.988281 8.746094 7.875 8.816406 7.792969 8.917969 C 7.714844 9.015625 7.667969 9.144531 7.667969 9.277344 L 7.667969 14.960938 C 7.667969 15.25 7.898438 15.480469 8.1875 15.480469 L 8.175781 15.480469 L 10.648438 15.929688 C 10.65625 15.949219 10.667969 15.976562 10.703125 16.023438 C 10.746094 16.085938 10.8125 16.164062 10.914062 16.164062 C 11.015625 16.164062 11.082031 16.085938 11.128906 16.023438 C 11.164062 15.976562 11.171875 15.949219 11.183594 15.929688 L 13.65625 15.480469 C 13.789062 15.457031 13.914062 15.402344 14.007812 15.3125 C 14.101562 15.226562 14.164062 15.105469 14.164062 14.960938 L 14.164062 9.277344 C 14.164062 9.132812 14.105469 8.988281 14.011719 8.886719 C 13.914062 8.78125 13.773438 8.71875 13.625 8.761719 L 11.078125 9.445312 L 11.078125 9.496094 C 11.078125 9.539062 11.0625 9.578125 11.03125 9.609375 C 11 9.640625 10.957031 9.660156 10.914062 9.660156 C 10.871094 9.660156 10.828125 9.640625 10.800781 9.609375 C 10.769531 9.582031 10.75 9.539062 10.75 9.496094 L 10.75 9.445312 L 8.128906 8.75 Z M 13.730469 8.878906 C 13.796875 8.878906 13.863281 8.914062 13.914062 8.972656 C 13.988281 9.050781 14.035156 9.167969 14.035156 9.277344 L 14.035156 14.960938 C 14.035156 15.058594 13.996094 15.152344 13.921875 15.21875 C 13.847656 15.285156 13.746094 15.332031 13.632812 15.351562 L 11.097656 15.8125 L 11.082031 15.84375 C 11.082031 15.84375 11.058594 15.898438 11.023438 15.945312 C 10.988281 15.996094 10.941406 16.035156 10.914062 16.035156 C 10.890625 16.035156 10.84375 15.996094 10.804688 15.945312 C 10.769531 15.898438 10.746094 15.84375 10.746094 15.84375 L 10.734375 15.8125 L 8.191406 15.351562 L 8.1875 15.351562 C 8.082031 15.351562 7.984375 15.3125 7.910156 15.238281 C 7.835938 15.164062 7.796875 15.066406 7.796875 14.960938 L 7.796875 9.277344 C 7.796875 9.179688 7.835938 9.074219 7.894531 8.996094 C 7.957031 8.921875 8.03125 8.878906 8.113281 8.878906 L 10.632812 9.546875 C 10.660156 9.683594 10.773438 9.789062 10.914062 9.789062 C 11.054688 9.785156 11.171875 9.683594 11.195312 9.546875 L 13.660156 8.882812 C 13.683594 8.878906 13.707031 8.875 13.730469 8.878906 Z M 13.730469 8.878906 "/>
</g>
</svg>

<svg xmlns="http://www.w3.org/2000/svg" width="22pt" height="22pt" viewBox="0 0 22 22"><defs><linearGradient id="a" gradientUnits="userSpaceOnUse" x1="254" y1="233.5" x2="254" y2="254.667" gradientTransform="matrix(.04297 0 0 .04297 0 9.24)"><stop offset="0" stop-opacity=".275"/><stop offset="1" stop-opacity="0"/></linearGradient><radialGradient id="b" gradientUnits="userSpaceOnUse" cx="450.909" cy="189.579" fx="450.909" fy="189.579" r="21.167" gradientTransform="matrix(0 -.05372 -.09669 0 37.204 43.722)"><stop offset="0" stop-opacity=".314"/><stop offset=".222" stop-opacity=".275"/><stop offset="1" stop-opacity="0"/></radialGradient><radialGradient id="c" gradientUnits="userSpaceOnUse" cx="450.909" cy="189.579" fx="450.909" fy="189.579" r="21.167" gradientTransform="matrix(0 .05372 .09669 0 -15.374 -5.175)"><stop offset="0" stop-opacity=".314"/><stop offset=".222" stop-opacity=".275"/><stop offset="1" stop-opacity="0"/></radialGradient><radialGradient id="d" gradientUnits="userSpaceOnUse" cx="450.909" cy="189.579" fx="450.909" fy="189.579" r="21.167" gradientTransform="matrix(0 -.05372 .09669 0 -15.374 43.722)"><stop offset="0" stop-opacity=".314"/><stop offset=".222" stop-opacity=".275"/><stop offset="1" stop-opacity="0"/></radialGradient><radialGradient id="e" gradientUnits="userSpaceOnUse" cx="450.909" cy="189.579" fx="450.909" fy="189.579" r="21.167" gradientTransform="matrix(0 .05372 -.09669 0 37.204 -5.175)"><stop offset="0" stop-opacity=".314"/><stop offset=".222" stop-opacity=".275"/><stop offset="1" stop-opacity="0"/></radialGradient><linearGradient id="f" gradientUnits="userSpaceOnUse" x1="254" y1="-147.5" x2="254" y2="-31.083" gradientTransform="matrix(.04297 0 0 .04297 0 9.24)"><stop offset="0" stop-color="#a4a4a4" stop-opacity="0"/><stop offset="1" stop-color="#fff" stop-opacity=".196"/></linearGradient><linearGradient id="g" gradientUnits="userSpaceOnUse" x1="254" y1="233.5" x2="254" y2="-105.167" gradientTransform="matrix(.04297 0 0 .04297 0 9.24)"><stop offset="0" stop-color="#585858" stop-opacity="0"/><stop offset="1" stop-color="#fafafa" stop-opacity=".196"/></linearGradient><linearGradient id="h" gradientUnits="userSpaceOnUse" x1="254" y1="-147.5" x2="254" y2="233.5" gradientTransform="matrix(.04297 0 0 .04297 0 9.24)"><stop offset="0" stop-color="#a4a4a4" stop-opacity="0"/><stop offset="1" stop-color="#fff" stop-opacity=".196"/></linearGradient></defs><path d="M2.73 19.273h16.372v.91H2.73zm0 0" fill="url(#a)"/><path d="M19.102 19.273h1.82v-.91h-1.82zm0 0" fill="url(#b)"/><path d="M2.73 19.273H.91v.91h1.82zm0 0" fill="url(#c)"/><path d="M2.73 19.273H.91v-.91h1.82zm0 0" fill="url(#d)"/><path d="M19.102 19.273h1.82v.91h-1.82zm0 0" fill="url(#e)"/><path d="M5.004 2.902h14.781c.5 0 .906.407.906.907v3.414c0 .5-.406.906-.906.906H5.004a.908.908 0 0 1-.91-.906V3.809c0-.5.406-.907.91-.907zm0 0" fill="#6e3d62"/><path d="M5.004 2.902h14.781c.5 0 .906.407.906.907v3.414c0 .5-.406.906-.906.906H5.004a.908.908 0 0 1-.91-.906V3.809c0-.5.406-.907.91-.907zm0 0" fill="url(#f)"/><path d="M5.004 2.902a.905.905 0 0 0-.91.907v.117c0-.504.406-.91.91-.91h14.781c.504 0 .906.406.906.91v-.117a.902.902 0 0 0-.906-.907zm0 0" fill="#e6e6e6" fill-opacity=".588"/><path d="M5.004 2.836a.976.976 0 0 0-.977.973v3.414c0 .535.438.972.977.972h14.781a.975.975 0 0 0 .973-.972V3.809a.975.975 0 0 0-.973-.973zm0 .129h14.781a.84.84 0 0 1 .844.844v3.414a.84.84 0 0 1-.844.843H5.004a.844.844 0 0 1-.848-.843V3.809c0-.47.38-.844.848-.844zm0 0" fill="#212121"/><path d="M1.82 4.719a.909.909 0 0 0-.91.91v12.734c0 .504.406.91.91.91h18.192c.504 0 .91-.406.91-.91V6.993H8.64a.905.905 0 0 1-.91-.907V4.719zm0 0" fill="#e46d43"/><path d="M1.82 4.719a.909.909 0 0 0-.91.91v12.734c0 .504.406.91.91.91h18.192c.504 0 .91-.406.91-.91V6.993H8.64a.905.905 0 0 1-.91-.907V4.719zm0 0" fill="url(#g)"/><path d="M1.82 19.273a.909.909 0 0 1-.91-.91v-.113c0 .504.406.91.91.91h18.192c.504 0 .91-.406.91-.91v.113c0 .504-.406.91-.91.91zm0 0" fill-opacity=".196"/><path d="M1.82 4.719a.909.909 0 0 0-.91.91v.113c0-.504.406-.91.91-.91h5.91v-.113zm0 0M8.586 7.05a.909.909 0 0 1-.91-.91v-.113c0 .504.406.91.91.91h12.336v.114zm0 0" fill="#e6e6e6" fill-opacity=".937"/><path d="M1.82 4.656a.974.974 0 0 0-.976.973v12.734c0 .54.437.973.976.973h18.192a.97.97 0 0 0 .972-.973v-11.5H8.641a.84.84 0 0 1-.844-.843V4.656zm0 .13h5.848V6.02c0 .539.434.972.973.972h12.214v11.371a.84.84 0 0 1-.843.844H1.82a.844.844 0 0 1-.847-.844V5.63c0-.469.379-.844.847-.844zm0 0" fill="#212121"/><path d="M8.117 8.813c-.21-.004-.387.234-.387.464v5.684c0 .254.204.453.457.457l2.5.453s.102.227.227.227c.129 0 .227-.227.227-.227l2.504-.453c.246-.047.453-.203.453-.457V9.277c0-.254-.211-.52-.453-.457l-2.504.676a.227.227 0 0 1-.453 0zm0 0" fill="#6e3d62"/><path d="M8.117 8.813c-.21-.004-.387.234-.387.464v5.684c0 .254.204.453.457.457l2.5.453s.102.227.227.227c.129 0 .227-.227.227-.227l2.504-.453c.246-.047.453-.203.453-.457V9.277c0-.254-.211-.52-.453-.457l-2.504.676a.227.227 0 0 1-.453 0zm0 0" fill="url(#h)"/><path d="M8.121 8.746a.424.424 0 0 0-.328.172.581.581 0 0 0-.125.36v5.683c0 .289.23.52.52.52h-.012l2.472.449c.008.02.02.047.055.093.043.063.11.141.211.141.102 0 .168-.078.215-.14.035-.047.043-.075.055-.094l2.472-.45a.674.674 0 0 0 .352-.168.47.47 0 0 0 .156-.351V9.277a.588.588 0 0 0-.152-.39c-.098-.102-.239-.168-.383-.13l-2.55.688v.051c0 .09-.071.16-.165.16-.09 0-.16-.07-.16-.16v-.05l-2.625-.7zm5.61.129c.07.004.132.04.183.098a.46.46 0 0 1 .121.304v5.684c0 .11-.043.191-.113.258a.583.583 0 0 1-.29.133l-2.534.46-.016.032s-.023.054-.059.105c-.035.047-.085.086-.109.086-.023 0-.07-.039-.11-.086-.034-.05-.058-.105-.058-.105l-.012-.031-2.543-.461h-.004a.387.387 0 0 1-.39-.391V9.277a.49.49 0 0 1 .098-.28c.062-.075.136-.122.218-.118l2.52.668c.027.137.14.238.281.238a.282.282 0 0 0 .281-.238l2.465-.664c.024-.004.047-.008.07-.008zm0 0" fill="#212121"/></svg>
